actions/22x22-dark/svn-update.svg

<svg viewBox="0 0 22 22" xmlns="http://www.w3.org/2000/svg"><path d="m10.5 3c-.65424 0-1.2022031.41808-1.4082031 1h-4.0917969-1v1 11.091797c-.58192.206-1 .753963-1 1.408203 0 .831.669 1.5 1.5 1.5s1.5-.669 1.5-1.5c0-.65424-.41808-1.202203-1-1.408203v-11.091797h4.0917969c.15034.4247.4835031.7578631.9082031.9082031v6.0917969 1h1 .091797c.206.58192.753963 1 1.408203 1 .831 0 1.5-.669 1.5-1.5s-.669-1.5-1.5-1.5c-.65424 0-1.202203.41808-1.408203 1h-.091797v-6.0917969c.58192-.206 1-.7539631 1-1.4082031 0-.831-.669-1.5-1.5-1.5zm0 1c .277 0 .5.223.5.5s-.223.5-.5.5-.5-.223-.5-.5.223-.5.5-.5zm2 8c .277 0 .5.223.5.5s-.223.5-.5.5-.5-.223-.5-.5.223-.5.5-.5zm3.5 1v4.292969l-2.292969-2.292969-.707031.707031 3.292969 3.292969.207031.207031.207031-.207031 3.292969-3.292969-.707031-.707031-2.292969 2.292969v-4.292969zm-11.5 4c .277 0 .5.223.5.5s-.223.5-.5.5-.5-.223-.5-.5.223-.5.5-.5z" fill="#f2f2f2"/></svg>

<svg xmlns="http://www.w3.org/2000/svg" viewBox="0 0 22 22">
  <defs id="defs3051">
    <style type="text/css" id="current-color-scheme">
      .ColorScheme-Text {
        color:#f2f2f2;
      }
      .ColorScheme-Highlight {
        color:#3daee9;
      }
      </style>
  </defs>
 <path 
     style="fill:currentColor;fill-opacity:1;stroke:none" 
     d="M 10.5 3 C 9.84576 3 9.2977969 3.41808 9.0917969 4 L 5 4 L 4 4 L 4 5 L 4 16.091797 C 3.41808 16.297797 3 16.84576 3 17.5 C 3 18.331 3.669 19 4.5 19 C 5.331 19 6 18.331 6 17.5 C 6 16.84576 5.58192 16.297797 5 16.091797 L 5 5 L 9.0917969 5 C 9.2421369 5.4247 9.5753 5.7578631 10 5.9082031 L 10 12 L 10 13 L 11 13 L 11.091797 13 C 11.297797 13.58192 11.84576 14 12.5 14 C 13.331 14 14 13.331 14 12.5 C 14 11.669 13.331 11 12.5 11 C 11.84576 11 11.297797 11.41808 11.091797 12 L 11 12 L 11 5.9082031 C 11.58192 5.7022031 12 5.15424 12 4.5 C 12 3.669 11.331 3 10.5 3 z M 10.5 4 C 10.777 4 11 4.223 11 4.5 C 11 4.777 10.777 5 10.5 5 C 10.223 5 10 4.777 10 4.5 C 10 4.223 10.223 4 10.5 4 z M 12.5 12 C 12.777 12 13 12.223 13 12.5 C 13 12.777 12.777 13 12.5 13 C 12.223 13 12 12.777 12 12.5 C 12 12.223 12.223 12 12.5 12 z M 16 13 L 16 17.292969 L 13.707031 15 L 13 15.707031 L 16.292969 19 L 16.5 19.207031 L 16.707031 19 L 20 15.707031 L 19.292969 15 L 17 17.292969 L 17 13 L 16 13 z M 4.5 17 C 4.777 17 5 17.223 5 17.5 C 5 17.777 4.777 18 4.5 18 C 4.223 18 4 17.777 4 17.5 C 4 17.223 4.223 17 4.5 17 z "
     class="ColorScheme-Text"
     />
</svg>
